assets/2023/icons/jupyter.svg

<svg width="16" height="16" viewBox="0 0 16 16" fill="none" xmlns="http://www.w3.org/2000/svg">
<path d="M13.6568 5.75228C12.2698 4.71813 10.0763 3.80108 8.00497 3.80108C5.92586 3.80108 3.73942 4.71517 2.35489 5.74922C2.1676 5.88909 1.91215 5.69675 2.04061 5.50124C2.65381 4.56794 3.56517 3.6094 4.34645 3.09202C5.41998 2.38111 6.6968 2 8.00497 2C9.31317 2 10.59 2.38111 11.6635 3.09202C12.4456 3.60991 13.358 4.56985 13.9712 5.50403C14.0995 5.69949 13.8441 5.89194 13.6568 5.75228Z" fill="#F37726"/>
<path d="M2.35496 10.2479C3.7419 11.2821 5.93545 12.1991 8.00675 12.1991C10.0859 12.1991 12.2723 11.285 13.6568 10.251C13.8441 10.1111 14.0996 10.3034 13.9711 10.499C13.3579 11.4323 12.4466 12.3908 11.6653 12.9082C10.5917 13.6191 9.31492 14.0002 8.00675 14.0002C6.69855 14.0002 5.42176 13.6191 4.3482 12.9082C3.56615 12.3903 2.65377 11.4303 2.04054 10.4962C1.91223 10.3007 2.16767 10.1083 2.35496 10.2479Z" fill="#F37726"/>
</svg>

<svg xmlns="http://www.w3.org/2000/svg" width="16" height="16" fill="none" viewBox="0 0 16 16"><path fill="#F37726" d="M13.657 5.752c-1.387-1.034-3.58-1.95-5.652-1.95-2.08 0-4.266.913-5.65 1.947-.187.14-.443-.052-.314-.248.613-.933 1.524-1.892 2.305-2.409A6.63 6.63 0 0 1 8.005 2c1.308 0 2.585.381 3.659 1.092.782.518 1.694 1.478 2.307 2.412.129.195-.127.388-.314.248M2.355 10.248c1.387 1.034 3.58 1.951 5.652 1.951 2.079 0 4.265-.914 5.65-1.948.187-.14.443.052.314.248-.613.933-1.524 1.892-2.306 2.41A6.63 6.63 0 0 1 8.007 14a6.63 6.63 0 0 1-3.659-1.092c-.782-.518-1.694-1.478-2.307-2.412-.129-.195.127-.388.314-.248"/></svg>
